X:35
T:Nell Fees'
Z: id:dc-polka-28
M:2/4
L:1/8
K:D Major
D3B|AF2B|AF D>E|FE E2|!
D3B|AF2B|AF EF|D2 D2:|!
d2 cd|BA FA|d2 cd|B3 c|!
d2 cd|BA FB|AF EF|D2 D2:|!
d2 e2|f3f|ed Bc|d3 A|!
Bd/B/ AF|Bd/B/ AF|AF EF|D2 D2:|!

